assets/img/braze_icons/volume-min.svg

<svg fill="none" height="24" viewBox="0 0 24 24" width="24" xmlns="http://www.w3.org/2000/svg"><g clip-rule="evenodd" fill="#801ed7" fill-rule="evenodd"><path d="m17.673 7.17975c.453-.31596 1.0763-.20489 1.3923.24808.9041 1.29621 1.4345 2.87367 1.4345 4.57207s-.5304 3.2759-1.4345 4.5721c-.316.453-.9393.5641-1.3923.2481-.453-.3159-.564-.9393-.2481-1.3923.6777-.9714 1.0749-2.1518 1.0749-3.4279s-.3972-2.45641-1.0749-3.42787c-.3159-.45298-.2049-1.07632.2481-1.39228z"/><path d="m12.8823 2.71166c.4787-.03767.9465.15609 1.2583.52121.2793.32694.3236.7202.3405.91109.019.21397.0189.47973.0189.75011v.03723 14.1745c0 .2704.0001.5361-.0189.7501-.0169.1909-.0612.5842-.3405.9111-.3118.3651-.7796.5589-1.2583.5212-.4286-.0337-.7381-.2804-.885-.4035-.1647-.1379-.3526-.3258-.5438-.517l-3.19197-3.192c-.09263-.0927-.13903-.1387-.17415-.1708l-.00266-.0024-.00358-.0002c-.04749-.0021-.11288-.0024-.24388-.0024h-1.76914c-.25238.0001-.49818.0001-.70634-.0169-.2286-.0187-.49833-.0628-.76976-.2011-.37632-.1917-.68228-.4977-.87403-.874-.1383-.2714-.18236-.5411-.20104-.7697-.01701-.2082-.01698-.454-.01695-.7064l.00001-4.83187c0-.01064-.00001-.02127-.00001-.03189-.00003-.25239-.00006-.49818.01695-.70634.01868-.22859.06274-.49832.20104-.76975.19175-.37632.49771-.68228.87403-.87403.27143-.1383.54116-.18237.76976-.20104.20815-.01701.45394-.01698.70633-.01695h.0319 1.73725c.131 0 .19639-.00024.24388-.00241l.00358-.00017.00266-.00241c.03512-.03205.08152-.07811.17415-.17074l3.16567-3.16569c.0088-.00878.0176-.01756.0263-.02633.1912-.19122.3791-.37917.5438-.51706.1469-.12302.4564-.36972.885-.40346z"/></g></svg>

<svg width="24" height="24" viewBox="0 0 24 24" fill="none" xmlns="http://www.w3.org/2000/svg">
<path fill-rule="evenodd" clip-rule="evenodd" d="M17.673 7.17975C18.126 6.86379 18.7493 6.97486 19.0653 7.42783C19.9694 8.72404 20.4998 10.3015 20.4998 11.9999C20.4998 13.6983 19.9694 15.2758 19.0653 16.572C18.7493 17.025 18.126 17.1361 17.673 16.8201C17.22 16.5042 17.109 15.8808 17.4249 15.4278C18.1026 14.4564 18.4998 13.276 18.4998 11.9999C18.4998 10.7238 18.1026 9.54349 17.4249 8.57203C17.109 8.11905 17.22 7.49571 17.673 7.17975Z" fill="#801ED7"/>
<path fill-rule="evenodd" clip-rule="evenodd" d="M12.8823 2.71166C13.361 2.67399 13.8288 2.86775 14.1406 3.23287C14.4199 3.55981 14.4642 3.95307 14.4811 4.14396C14.5001 4.35793 14.5 4.62369 14.5 4.89407C14.5 4.90647 14.5 4.91888 14.5 4.9313L14.5 19.1058C14.5 19.3762 14.5001 19.6419 14.4811 19.8559C14.4642 20.0468 14.4199 20.4401 14.1406 20.767C13.8288 21.1321 13.361 21.3259 12.8823 21.2882C12.4537 21.2545 12.1442 21.0078 11.9973 20.8847C11.8326 20.7468 11.6447 20.5589 11.4535 20.3677L8.26153 17.1757C8.1689 17.083 8.1225 17.037 8.08738 17.0049L8.08472 17.0025L8.08114 17.0023C8.03365 17.0002 7.96826 16.9999 7.83726 16.9999L6.06812 16.9999C5.81574 17 5.56994 17 5.36178 16.983C5.13318 16.9643 4.86345 16.9202 4.59202 16.7819C4.2157 16.5902 3.90974 16.2842 3.71799 15.9079C3.57969 15.6365 3.53563 15.3668 3.51695 15.1382C3.49994 14.93 3.49997 14.6842 3.5 14.4318L3.50001 9.59993C3.50001 9.58929 3.5 9.57866 3.5 9.56804C3.49997 9.31565 3.49994 9.06986 3.51695 8.8617C3.53563 8.63311 3.57969 8.36338 3.71799 8.09195C3.90974 7.71563 4.2157 7.40967 4.59202 7.21792C4.86345 7.07962 5.13318 7.03555 5.36178 7.01688C5.56993 6.99987 5.81572 6.9999 6.06811 6.99993C6.07873 6.99993 6.08936 6.99993 6.10001 6.99993H7.83726C7.96826 6.99993 8.03365 6.99969 8.08114 6.99752L8.08472 6.99735L8.08738 6.99494C8.1225 6.96289 8.1689 6.91683 8.26153 6.8242L11.4272 3.65851C11.436 3.64973 11.4448 3.64095 11.4535 3.63218C11.6447 3.44096 11.8326 3.25301 11.9973 3.11512C12.1442 2.9921 12.4537 2.7454 12.8823 2.71166Z" fill="#801ED7"/>
</svg>
